dist/img/android_icon.svg

<svg width="30" height="16" viewBox="0 0 30 16" fill="none" xmlns="http://www.w3.org/2000/svg">
<path d="M21.953 5.0202L24.3171 1.17578C24.3804 1.07258 24.3977 0.950037 24.3652 0.8349C24.3327 0.719764 24.2529 0.62139 24.1434 0.561257C24.0893 0.531442 24.0294 0.512002 23.9672 0.504063C23.9051 0.496124 23.8418 0.499844 23.7812 0.515008C23.7206 0.530172 23.6638 0.556479 23.614 0.592404C23.5643 0.628328 23.5227 0.673157 23.4916 0.724294L21.098 4.61836C19.2705 3.83453 17.2138 3.3982 15.0017 3.3982C12.7896 3.3982 10.7328 3.83505 8.90534 4.61836L6.51179 0.724294C6.44801 0.621183 6.34321 0.546079 6.22045 0.515504C6.09769 0.484929 5.96701 0.501387 5.85718 0.561257C5.74734 0.621128 5.66734 0.719507 5.63477 0.834752C5.6022 0.949998 5.61973 1.07267 5.68351 1.17578L8.04199 5.0202C3.96738 7.0916 1.20589 10.9653 0.75 15.5H29.25C28.7941 10.9653 26.0326 7.0916 21.953 5.0202ZM8.45669 11.7428C8.22043 11.7428 7.98948 11.6771 7.79303 11.5539C7.59659 11.4306 7.44348 11.2555 7.35307 11.0506C7.26266 10.8457 7.239 10.6202 7.28509 10.4027C7.33118 10.1851 7.44495 9.98533 7.61201 9.8285C7.77908 9.67167 7.99192 9.56486 8.22364 9.5216C8.45536 9.47833 8.69555 9.50053 8.91382 9.58541C9.1321 9.67029 9.31866 9.81402 9.44992 9.99843C9.58118 10.1828 9.65124 10.3997 9.65124 10.6214C9.65109 10.9188 9.52519 11.204 9.3012 11.4142C9.07721 11.6245 8.77346 11.7427 8.45669 11.7428ZM21.5377 11.7428C21.3017 11.7419 21.0712 11.6754 20.8755 11.5516C20.6797 11.4278 20.5273 11.2523 20.4377 11.0473C20.3481 10.8424 20.3251 10.617 20.3718 10.3998C20.4184 10.1826 20.5326 9.98321 20.6998 9.82685C20.8671 9.67049 21.08 9.56415 21.3115 9.52126C21.5431 9.47837 21.7831 9.50086 22.001 9.58587C22.219 9.67088 22.4053 9.81461 22.5363 9.99892C22.6674 10.1832 22.7373 10.3999 22.7373 10.6214C22.7372 10.7689 22.7062 10.9149 22.646 11.0511C22.5857 11.1873 22.4975 11.311 22.3863 11.4152C22.2751 11.5193 22.1431 11.6019 21.9979 11.6581C21.8527 11.7143 21.6971 11.7431 21.54 11.7428H21.5377Z" fill="white"/>
</svg>

<svg width="30" height="16" fill="none" xmlns="http://www.w3.org/2000/svg"><path d="M21.953 5.02l2.364-3.844a.427.427 0 00.048-.341.456.456 0 00-.222-.274.495.495 0 00-.651.163l-2.394 3.894c-1.828-.783-3.884-1.22-6.096-1.22s-4.27.437-6.097 1.22L6.512.724A.476.476 0 006.22.516a.506.506 0 00-.363.045.454.454 0 00-.222.274.426.426 0 00.049.34L8.042 5.02C3.967 7.092 1.206 10.965.75 15.5h28.5c-.456-4.535-3.217-8.408-7.297-10.48zM8.457 11.743a1.25 1.25 0 01-.664-.19 1.14 1.14 0 01-.44-.502 1.058 1.058 0 01-.068-.648c.046-.218.16-.418.327-.575a1.22 1.22 0 01.612-.306c.231-.044.472-.021.69.063.218.085.405.229.536.413.131.185.201.402.201.623 0 .298-.126.583-.35.793-.224.21-.528.329-.844.329zm13.08 0a1.25 1.25 0 01-.662-.191 1.14 1.14 0 01-.437-.505 1.057 1.057 0 01-.066-.647c.046-.217.16-.417.328-.573.167-.157.38-.263.611-.306.232-.043.472-.02.69.065.218.085.404.229.535.413a1.073 1.073 0 01.11 1.052c-.06.136-.149.26-.26.364a1.204 1.204 0 01-.388.243 1.27 1.27 0 01-.458.085h-.002z" fill="#fff"/></svg>
